packages/icons/svg/Outline/car.svg

<svg fill="none" height="24" viewBox="0 0 24 24" width="24" xmlns="http://www.w3.org/2000/svg"><path clip-rule="evenodd" d="m19 18.0001c0 .552-.448 1-1 1s-1-.448-1-1 .448-1 1-1 1 .448 1 1zm-7-3h-7.99998l.016-10.00003h10.98398l-.016 10.00003zm-5 3c0 .552-.448 1-1 1s-1-.448-1-1 .448-1 1-1 1 .448 1 1zm13-5.5202v2.52h-3v-4.919zm1.625-1.2609-4.625-3.7v-2.519c0-1.103-.813-2-1.813-2h-11.375c-.999 0-1.812.897-1.812 2v10c0 .873.513 1.609 1.221 1.882-.14.346-.221.722-.221 1.118 0 1.654 1.346 3 3 3s3-1.346 3-3c0-.353-.072-.686-.185-1h3.185 3.185c-.113.314-.185.647-.185 1 0 1.654 1.346 3 3 3s3-1.346 3-3c0-.353-.072-.686-.185-1h.185c.553 0 1-.447 1-1v-4c0-.304-.138-.591-.375-.781z" fill="#6b7280" fill-rule="evenodd"/></svg>

<svg width="24" height="24" viewBox="0 0 24 24" fill="none" xmlns="http://www.w3.org/2000/svg">
<g id="Icon/Outline/car">
<path id="Mask" fill-rule="evenodd" clip-rule="evenodd" d="M19 18C19 18.552 18.552 19 18 19C17.448 19 17 18.552 17 18C17 17.448 17.448 17 18 17C18.552 17 19 17.448 19 18ZM12 15H4L4.016 5H15L14.984 15H12ZM7 18C7 18.552 6.552 19 6 19C5.448 19 5 18.552 5 18C5 17.448 5.448 17 6 17C6.552 17 7 17.448 7 18ZM20 12.48V15H17V10.081L20 12.48ZM21.625 11.219L17 7.519V5C17 3.897 16.187 3 15.187 3H3.812C2.813 3 2 3.897 2 5V15C2 15.873 2.513 16.609 3.221 16.882C3.081 17.228 3 17.604 3 18C3 19.654 4.346 21 6 21C7.654 21 9 19.654 9 18C9 17.647 8.928 17.314 8.815 17H12H15.185C15.072 17.314 15 17.647 15 18C15 19.654 16.346 21 18 21C19.654 21 21 19.654 21 18C21 17.647 20.928 17.314 20.815 17H21C21.553 17 22 16.553 22 16V12C22 11.696 21.862 11.409 21.625 11.219Z" fill="#000000"/>
</g>
</svg>
